X:1
T:[ID 11-16a]
T:[ID 11-16a]
T:Bezeichnung standardisiert: Arioso Arioso
T:Urheber unbekannt Datum in der hier transkribierten schriftlichen Quelle: vermutlich um 1800
C:Urheber unbekannt
C:Datum in der hier transkribierten schriftlichen Quelle: vermutlich um 1800
L:1/8
M:3/8
K:G
V:1 treble 
V:1
 B2 Tc | dB/d/c/e/ | dge | dcB |{d} cBA | B/>c/d z | B2 Tc | dFG | A3/2 c/B/d/ | e/>g/ cB | %10
{B} TBA z | d2 f |{f} e2 a | agf |{f} e(d/^c/).d | b/>g/ ed |{d} ^c2 d | e/>g/f/>a/g/>f/ | %18
{g} Tfe z | eg/>e/f/>d/ |{d} ^c2 d | eg/>e/f/>d/ |{d} ^c2 d | a(g/f/e/d/) |{ga} b(a/g/f/e/) | %25
 f/>g/ fe | d2 z :: f2 g | af/a/g/b/ | ad'b | (agf) |{a} gfe | f/>g/a z | f2 g | af/a/g/b/ | %35
 .a(dc) | B/>G/d/>B/g/>d/ | (3e/f/g/ cB |{c} BA z |{d} c2 A/>c/ | (B/>d/).g z |{d} c2 A/>c/ | %42
 (B/>d/).g z | (ege) |{e} d2 z | (cec) |{d} B2 d/>B/ | e/>d/c/>B/A/>G/ | dD z | ac'/>a/b/>g/ | %50
{g} f2 g | d(c/B/A/G/) |{Bc} e(d/c/B/A/) | B/>c/ BTA | G2 z :| %55

